X: 5
T: Cuckoo's Nest, The
M: 4/4
L: 1/8
R: hornpipe
K: Gmaj
|: dc |\
B2 Bd c2 ce | d2 ge dBGF | E2 cB AGFG | A2 GE Dd^cd |
B^ABG cBcA | d2 ge d2 BG | EcBc A2 FG | A2 G2 G2 :|
|: ga |\
|: bgfg dgBg | bgfg d2 ab | c'a^ga eaca | c'a^ga e2 ga |
b2 ge d2 Bd | bgfg dgBg | a2 g2 f2 e2 | d2 c2 B2 :|
